X: 35244
T: Roscommon, The
R: reel
M: 4/4
K: Edorian
EFGA BAGB|AFF2dFAF|EFGA BAGB|AFdF FEEF|
EFGA BAGB|AFdF eFdF|EFGA BAGB|AFdF FE E2||
eB B2 efge|fa a2 baaf|eB B2 efge|fgaf efgf|
eBB2 efge|fa a2 b2 ag|(3fga gf (3efg fe|dBAF EFGA||
B2 BA BcdB|ADFB ADFB|B2 BA BcdB|AFdF FE E2|
dBBA BcdB|ADFB ADFB|B2 BA BcdB|AFdF FE E2||

